X: 13381
T: Fleur De Mandragore
R: reel
M: 4/4
K: Amajor
E2AE GABc|A^de=d cAAF|E2AE GAB2|
~B3d cAAF|E2AE GABc|A^de=d cAAF|
E2AE GAB2|1 ~B3d cAAF:|2 ~B3d cA|AB ABce||
~a3a a2ga|bAaA gAeA|dfed cABc|defa agfe|
~a3a a2ga|bAaA gAeA|dfed cABc|dcBc BAA2:|

